X: 131006
T: OVER THE WATER
Q: "Scotch Jig."
R: Jig.
%R: jig
B: James Kerr "Merry Melodies" v.1 p.31 s.0 #6
Z: 2016 John Chambers <jc:trillian.mit.edu>
M: 6/8
L: 1/8
K: G
uG |\
GBd dBd | egB BAG | GBd dBd | e3 g2 uG |\
GBd dBd | egB BAG | gbg afd | e3 g2 :|
|: ud |\
gbg afd | egB BAG | gbg afd | e3 g2d |\
gbg afd | egB BAG | GBd dBd | e3 g2 :|

%%sep 1 1 500
%%sep 1 1 500

